X: 03803
T: Lancers "Oriental"
T: Figure III
B: Henry Ford's "Good Morning"
Z: 2011 John Chambers <jc:trillian.mit.edu>
N: Records No.104-B and No.105-B
N: Dancers: Wait first eight bars.
N: The A chord at the start of bar 12 is probably a typo.
R: jig
M: 6/8
L: 1/8
K: D
((3A/B/c/) |\
"D"[dF]z[fA] [aA]zd | "A7"cBA gfe | "D"dz[fA] [aA]zf | "A7"eba gfe |
"D"[dF]z[fA] [aA]z=c | "G"Bz[bB] [gG]z[eG] | "D"[fA]af "A7"[e2G2][AG] | "D"[dF]zz [dF]zHz ||
K: A
"A"[ecA]fe [c'c]z[ec] | [acA]z[ecA] "E7"k[g3G3] | efe [d'd]zg | "A"[bB]ze "A"k[a3A3] |
"A"[ecA]fe [c'c]z[ec] | [acA]z[ec=g] "D"H[f3d3A3] | "E7"egf edB | "A"Azz "A7"[a=gcA]"D.C."z |]
